X: 30263
T: Old Lancashire Hornpipe, The
R: three-two
M: 3/2
K: Dmajor
B2 A2 G2||"D"F3 E D2 f2 e2 d2|"Em"e2 E4 B2 "A7"A2 G2|"D"F3 E D2 f2 "A"e2 c2|!breath!"D"d6 B2 "A7"A2 G2||
"D"F3 E D2 f2 "A"e2 dc|"Em"e2 E4 B2 "A7"A2 G2|"D"F3 G A2 f2 "A"e2 dc|"D"d2 !breath!D4 B2 "A7"A2 G2||
"D"FG A2 "G"GA B2 Bc d2|"Em"e2 E4 B2 "A7"A2 G2|"D"FG A2 fg a2 "A"cd e2|"D"d2 !breath!D4 B2 "A7"A2 G2||
"D"F2 A2 "G"G2 B2 "A"E2 e2|"Em"e2 E4 B2 "A7"A2 G2|"D"F2 A2 "G"G2 B2 "A"E2 c2|"D"d2 !breath!D4 B2 "A7"A2 G2||
"D"FG A2 "G"Bc d2 "A"cd e2|"Em"e2 E4 B2 "A7"A2 G2|"D"FG A2 "G"Bc d2 "A"cd e2|"D"d2 !breath!D4 B2 "A7"A2 G2||
"D"F3 E D2 "Bm"f2 e2 d2|"A"c2 e4 f2 "Em"g2 B2|"A"A3 G F2 "D"a2 f2 d2|"G"g2 !breath!b4 "D"f2 e2 d2||
"A"c2 a4 e2 "D"f2 d2|"A"c2 e4 B2 "D"A2 F2|"G"G3 B "A"c2 d2 e2 c2|"D"d2 !breath!D4 F2 "A7"G2 AG||
"D"F3 E D2 ef "Em"gfed|"A"c2 e4 f2 "G"g2 B2|"D"A3 G F2 ag fe d2|"G"g2 !breath!b4 f2 "Em7"gfed||
"A"c2 a4 e2 "D"f2 d2|"A"c2 "Em"e4 B2 "D"ABAF|"G"G3 B "Am"cBcd e2 c2|"D"d2 !breath!D4 B2 "A7"A2 G2||
"D"F3 G A2 F2 E2 D2|"Em"Bc E4 B2 "A7"A2 G2|"D"F3 G A2 F2 "A"E2 D2|"D"cd !breath!D4 B2 "A7"A2 G2||
"D"F4 "G"G4 "A"A4|"Em"E6 B2 "A7"A2 G2|"D"F4 d4 "A7"e4|"D"!breath!d6 f2 "A7"g2 a2||
"G"baba gfgf gfed|"Em"e2 E4 B2 "A7"A2 G2|"D"F3 E D2 f2 "A7"fgef|"D"d2 D4||

